paramountplus.svg

<svg viewBox="0 0 24 24" xmlns="http://www.w3.org/2000/svg"><path d="M9.36478 18.0422C9.24488 17.9925 9.04832 17.7719 9.37531 17.1578L10.1349 15.5702C10.158 15.5222 10.1025 15.4622 10.0679 15.5029L9.40374 16.1707C9.08948 16.4987 8.55638 17.4207 8.45315 17.5913L7.64626 18.9252C7.70619 18.9233 7.75636 18.9704 7.75826 19.0303C7.75885 19.05 7.75412 19.0695 7.74447 19.0868L7.00696 20.3255C6.82689 20.6327 7.15041 20.8474 7.19425 20.7767C8.35344 18.9096 9.02765 19.0587 9.02765 19.0587L9.41461 18.1626C9.435 18.1177 9.4151 18.0648 9.37019 18.0444C9.36854 18.0436 9.36668 18.0429 9.36478 18.0422ZM12.0002 2.44192C5.37265 2.44192 1.11899e-05 7.81193 1.11899e-05 14.4362C-0.00349957 17.0006 0.81919 19.4979 2.34613 21.5581C2.84953 21.3408 3.12927 21.016 3.32909 20.7673L5.56345 17.9111C5.61051 17.8509 5.67194 17.8035 5.74216 17.7733L6.07851 17.6287L9.75238 12.9708L10.2851 12.554L11.3798 11.0311C11.408 10.9917 11.4425 10.957 11.4819 10.9285L11.9595 10.5814C12.0775 10.4957 12.2368 10.4943 12.3562 10.5781L12.9358 10.9847C13.2432 11.2004 13.4925 11.4888 13.6613 11.8242L15.9828 15.8999C16.0207 15.9777 16.0851 16.0394 16.1644 16.0739C16.6197 16.3005 16.8978 16.3405 17.4937 16.9875C17.7717 17.2891 18.99 18.651 20.6975 20.7677C20.9456 21.1072 21.2778 21.3764 21.6614 21.5488C23.1837 19.4902 24.0036 16.9966 24 14.4362C24 7.81188 18.6276 2.44192 12.0002 2.44192ZM3.23625 15.0973L2.45818 14.8447L1.97755 15.5059L1.97755 14.6888L1.19942 14.4362L1.97755 14.1835L1.97755 13.3662L2.45818 14.0275L3.23625 13.7749L2.75552 14.4362L3.23625 15.0973ZM3.05179 17.7718L2.79907 18.5492L2.54634 17.7718L1.72858 17.7718L2.39011 17.2913L2.13743 16.5139L2.79902 16.9944L3.46065 16.5139L3.20792 17.2913L3.86956 17.7718L3.05179 17.7718ZM3.20797 11.5806L3.4607 12.358L2.79907 11.8775L2.13748 12.358L2.39016 11.5806L1.72862 11.1001L2.54639 11.1001L2.79911 10.3228L3.05189 11.1001L3.86965 11.1001L3.20797 11.5806ZM4.52114 9.82218L4.04075 9.16084L3.26268 9.41342L3.74336 8.75218L3.26268 8.09089L4.04075 8.34347L4.52144 7.68217L4.52144 8.4996L5.29951 8.75174L4.52144 9.00442L4.52144 9.82179L4.52114 9.82218ZM6.56631 6.96061L6.31358 7.738L6.06086 6.96066L5.24305 6.96066L5.90468 6.48018L5.652 5.70279L6.31358 6.18318L6.97512 5.70269L6.72244 6.48071L7.38408 6.9612L6.56626 6.9612L6.56626 6.96061L6.56631 6.96061ZM9.14346 5.64808L8.66277 6.30942L8.66277 5.49224L7.88465 5.23966L8.66277 4.98698L8.66277 4.16961L9.14346 4.83095L9.92119 4.57837L9.44051 5.23966L9.92124 5.9009L9.14346 5.64808ZM12.4091 4.89882L12.6618 5.67616L12.0002 5.19567L11.3386 5.67616L11.591 4.89916L10.9295 4.41867L11.7472 4.41867L12 3.64133L12.2528 4.41867L13.0705 4.41867L12.4091 4.89882ZM15.3373 5.49224L15.3373 6.30961L14.8568 5.64827L14.0788 5.9009L14.5595 5.23966L14.0789 4.57837L14.8569 4.83095L15.3374 4.16961L15.3374 4.98698L16.1155 5.23966L15.3373 5.49224ZM20.7638 13.7749L21.5418 14.0275L22.0224 13.3662L22.0224 14.1835L22.8005 14.4362L22.0224 14.6888L22.0224 15.5061L21.5418 14.8449L20.7638 15.0974L21.245 14.4362L20.7638 13.7749ZM17.6867 7.7382L17.4338 6.96081L16.6161 6.96081L17.2775 6.48032L17.0254 5.70288L17.6867 6.18337L18.348 5.70298L18.0959 6.48032L18.7573 6.96081L17.9395 6.96081L17.6867 7.7382ZM19.4792 9.82238L19.4792 9.00505L18.7011 8.75237L19.4792 8.50023L19.4792 7.68247L19.9597 8.34376L20.7378 8.09118L20.2573 8.75247L20.7378 9.41371L19.9597 9.16113L19.4792 9.82238ZM20.9482 11.1004L21.2011 10.323L21.454 11.1004L22.2717 11.1004L21.6104 11.5809L21.8632 12.3582L21.2012 11.8777L20.5398 12.3582L20.7927 11.5809L20.1306 11.1004L20.9482 11.1004ZM21.454 17.7718L21.2011 18.5492L20.9481 17.7718L20.1304 17.7718L20.7925 17.2913L20.5396 16.5139L21.201 16.9944L21.863 16.5139L21.6101 17.2913L22.2715 17.7718L21.454 17.7718ZM16.3467 21.368C16.4044 21.2842 16.498 21.0544 16.3222 20.6287L15.7912 19.2013C15.7191 19.0191 15.877 18.9085 15.9829 19.0283C15.9829 19.0283 16.9865 20.185 17.2458 20.668L17.7407 21.4893C18.1665 21.5168 19.3415 21.5488 20.4726 21.5488C20.3587 21.4357 20.2536 21.3142 20.1578 21.1854C18.2277 18.7935 17.0036 17.463 16.9914 17.4498C16.6002 17.0248 16.4194 16.9431 16.1211 16.8072C16.0779 16.7876 16.031 16.7665 15.9828 16.7435L15.9828 17.1066C15.9857 17.1312 15.9682 17.1534 15.9436 17.1564C15.9238 17.1587 15.9047 17.1476 15.897 17.1291L13.0594 12.1466L13.0515 12.1308C12.9332 11.8961 12.7588 11.6942 12.5437 11.5431L12.2669 11.3486L10.9132 14.4703C11.0749 14.4703 11.2061 14.6014 11.2062 14.7631C11.2063 14.8031 11.1981 14.8428 11.1821 14.8795L9.93138 17.7716L11.0795 17.7716C11.5232 17.7716 11.9627 17.858 12.3734 18.0262L12.676 18.1502C12.676 18.1502 11.763 20.0279 11.763 21.0166C11.7643 21.1964 11.7894 21.3752 11.8375 21.5485L13.9422 21.5485L13.8447 20.9558C14.6703 21.1401 15.5056 21.2778 16.3467 21.3683L16.3467 21.368L16.3467 21.368Z" fill="#0064ff"/></svg>

<svg viewBox="0 0 24 24" xmlns="http://www.w3.org/2000/svg"><path d="M9.365 18.042c-.12-.05-.317-.27.01-.884l.76-1.588c.023-.048-.033-.108-.067-.067l-.664.668c-.315.328-.848 1.25-.95 1.42l-.808 1.334a.109.109 0 0 1 .098.162l-.737 1.239c-.18.307.143.521.187.45 1.16-1.866 1.834-1.717 1.834-1.717l.387-.896a.09.09 0 0 0-.05-.12ZM12 2.442c-6.627 0-12 5.37-12 11.994a11.933 11.933 0 0 0 2.346 7.122c.504-.217.783-.542.983-.79l2.234-2.857a.455.455 0 0 1 .18-.138l.336-.144 3.673-4.658.533-.417 1.095-1.523a.45.45 0 0 1 .102-.103l.478-.347a.341.341 0 0 1 .396-.003l.58.407c.307.215.556.504.725.84l2.322 4.075c.038.078.102.14.181.174.456.226.734.266 1.33.913.278.302 1.496 1.664 3.204 3.78.248.34.58.61.963.782A11.934 11.934 0 0 0 24 14.436c0-6.624-5.372-11.994-12-11.994ZM3.236 15.097l-.778-.252-.48.66v-.816l-.779-.253.779-.252v-.818l.48.662.778-.253-.48.661.48.661Zm-.184 2.675-.253.777-.253-.777H1.73l.661-.48-.253-.778.662.48.662-.48-.253.777.662.48h-.818Zm.156-6.191.253.777-.662-.48-.662.48.253-.777-.661-.48h.817l.253-.778.253.777h.818l-.662.48Zm1.313-1.759-.48-.661-.778.252.48-.66-.48-.662.778.252.48-.66V8.5l.779.252-.779.252v.818Zm2.045-2.861-.252.777-.253-.777h-.818l.662-.48-.253-.778.662.48.661-.48-.253.778.662.48h-.818Zm2.577-1.313-.48.661v-.817l-.778-.252.778-.253V4.17l.48.66.778-.252-.48.662.48.66-.778-.252Zm3.266-.75.253.778-.662-.48-.661.48.252-.777-.661-.48h.817L12 3.64l.253.778h.817l-.66.48Zm2.928.594v.818l-.48-.662-.778.253.48-.661-.48-.662.778.253.48-.661v.817l.779.253-.779.252Zm5.427 8.283.778.252.48-.66v.816l.779.253-.779.253v.817l-.48-.661-.778.252.481-.66-.481-.662Zm-3.077-6.037-.253-.777h-.818l.662-.48-.253-.778.662.48.661-.48-.252.777.661.48h-.818l-.252.778Zm1.792 2.084v-.817l-.778-.253.778-.252v-.818l.48.662.779-.253-.48.661.48.662-.778-.253-.48.661Zm1.47 1.278.252-.777.253.777h.818l-.662.48.253.778-.662-.48-.661.48.253-.777-.662-.48h.817Zm.505 6.672-.253.777-.253-.777h-.818l.663-.48-.253-.778.661.48.662-.48-.253.777.662.48h-.818Zm-5.107 3.596c.057-.084.151-.314-.025-.74l-.53-1.427c-.073-.182.085-.293.19-.173 0 0 1.005 1.157 1.264 1.64l.495.821c.425.028 1.6.06 2.732.06a3.22 3.22 0 0 1-.315-.364c-1.93-2.391-3.154-3.722-3.167-3.735-.39-.425-.572-.507-.87-.643l-.138-.063v.363a.045.045 0 0 1-.086.022l-2.838-4.982-.007-.016a1.596 1.596 0 0 0-.508-.588l-.277-.194-1.354 3.121a.293.293 0 0 1 .27.41L9.93 17.771h1.149c.443 0 .883.086 1.293.254l.303.124s-.913 1.878-.913 2.867c.001.18.026.358.075.532h2.104l-.097-.593c.825.184 1.66.322 2.502.412Z" fill="#0064ff"/></svg>
